assets/icons/traton/document_eye.svg

<svg xmlns="http://www.w3.org/2000/svg" width="32" height="32" viewBox="0 0 32 32" fill="none">
<path d="M12 20C13.1046 20 14 20.8954 14 22C14 23.1046 13.1046 24 12 24C10.8954 24 10 23.1046 10 22C10 20.8954 10.8954 20 12 20Z" fill="#001D21" />
<path fill-rule="evenodd" clip-rule="evenodd" d="M12 16C16.4183 16 18.8571 18.7 20 22C19.1429 25 16.4183 28 12 28C7.58172 28 4.85714 25 4 22C5.14286 18.7 7.58172 16 12 16ZM12 18C10.2308 18 8.97623 18.5284 8.05176 19.2988C7.24054 19.975 6.59782 20.9118 6.12402 22.042C6.94667 24.1309 8.92978 26 12 26C15.0701 26 17.0523 24.1308 17.875 22.042C17.4012 20.9119 16.7594 19.9749 15.9482 19.2988C15.0238 18.5284 13.7692 18 12 18Z" fill="#001D21" />
<path d="M28.0231 11.5859V30H20.0178V28H26.0208V13H17.0104V4H10.0023V14.0068H8V2H18.4261L28.0231 11.5859ZM19.0127 11H24.6051L19.0127 5.41406V11Z" fill="#001D21" />
</svg>

<svg xmlns="http://www.w3.org/2000/svg" fill="none" viewBox="0 0 32 32"><path fill="#001d21" d="M12 20a2 2 0 1 1 0 4 2 2 0 0 1 0-4"/><path fill="#001d21" fill-rule="evenodd" d="M12 16c4.4 0 6.9 2.7 8 6-.9 3-3.6 6-8 6s-7.1-3-8-6c1.1-3.3 3.6-6 8-6m0 2a6 6 0 0 0-4 1.3A7 7 0 0 0 6.2 22C7 24.1 9 26 12 26c3 0 5-1.9 5.9-4a7 7 0 0 0-2-2.7A6 6 0 0 0 12 18" clip-rule="evenodd"/><path fill="#001d21" d="M28 11.6V30h-8v-2h6V13h-9V4h-7v10H8V2h10.4zm-9-.6h5.6L19 5.4z"/></svg>
